X: 31510
T: Paddy's Green Shamrock Shore
R: waltz
M: 3/4
K: Fmajor
C2|"C"G2 A2 B2|G4 C2|G2 E2 G2|"F"F2 E2 C2|"Bb"B,2 A,2 B,2|"C"C4 C2|
C6-|C4 A2|"F"A2 G2 F2|"C"G4 c2|"C7"c4 B2|G4 BB|B2 A2 G2|
"F"F2 C2 D2|"Bb"B,6-|B,4 A2|"F"A2 G2 F2|"C"G4 A=B|"C7"c4 B2|
G4 cc|"Bb"B2 A2 G2|"F"F2 C2 D2|"Bb"B,6-|B,4 C2|"C7"G2 A2 B2|
G4 C2|"C"G2 E2 G2|"F"F2 E2 C2|"Bb"B,2 A,2 B,2|"F"C4 C2|"C"C6||

